img/icon/shopping-cart.svg

<svg width="23" height="21" viewBox="0 0 23 21" fill="none" xmlns="http://www.w3.org/2000/svg">
<path d="M20.625 12.2969L22.4609 4.17188C22.5781 3.58594 22.1484 3 21.5234 3H6.21094L5.85938 1.28125C5.74219 0.851562 5.35156 0.5 4.92188 0.5H0.9375C0.390625 0.5 0 0.929688 0 1.4375V2.0625C0 2.60938 0.390625 3 0.9375 3H3.63281L6.40625 16.4375C5.74219 16.8281 5.3125 17.5312 5.3125 18.3125C5.3125 19.5234 6.28906 20.5 7.5 20.5C8.67188 20.5 9.6875 19.5234 9.6875 18.3125C9.6875 17.7266 9.41406 17.1797 9.02344 16.75H17.1875C16.7969 17.1797 16.5625 17.7266 16.5625 18.3125C16.5625 19.5234 17.5391 20.5 18.75 20.5C19.9219 20.5 20.9375 19.5234 20.9375 18.3125C20.9375 17.4531 20.4297 16.7109 19.6875 16.3594L19.8828 15.4219C20.0391 14.8359 19.5703 14.25 18.9844 14.25H8.51562L8.24219 13H19.6875C20.1172 13 20.5078 12.7266 20.625 12.2969Z" fill="#1565D8"/>
</svg>

<svg xmlns="http://www.w3.org/2000/svg" fill="none" viewBox="0 0 23 21"><path fill="#1565D8" d="M20.625 12.297l1.836-8.125C22.578 3.586 22.148 3 21.523 3H6.211l-.352-1.719C5.742.851 5.352.5 4.922.5H.938A.925.925 0 0 0 0 1.438v.625C0 2.609.39 3 .938 3h2.695l2.773 13.438a2.183 2.183 0 0 0-1.093 1.875c0 1.21.976 2.187 2.187 2.187 1.172 0 2.188-.977 2.188-2.188 0-.585-.274-1.132-.665-1.562h8.165c-.391.43-.625.977-.625 1.563 0 1.21.976 2.187 2.187 2.187 1.172 0 2.188-.977 2.188-2.188 0-.859-.508-1.601-1.25-1.953l.195-.937c.156-.586-.313-1.172-.899-1.172H8.516L8.242 13h11.445c.43 0 .82-.273.938-.703z"/></svg>
